images/pinterest.svg

<svg width="42" height="42" viewBox="0 0 42 42" fill="none" xmlns="http://www.w3.org/2000/svg">
<rect width="42" height="42" fill="#F9EFCF"/>
<path d="M18.6724 26.4197C17.7869 31.1902 16.7089 35.7647 13.5099 38.1535C12.5247 30.9435 14.9607 25.5272 16.0912 19.7785C14.1627 16.436 16.3239 9.70721 20.3909 11.3645C25.3959 13.405 16.0562 23.793 22.3264 25.0915C28.8732 26.446 31.5472 13.3962 27.4872 9.15071C21.6212 3.02396 10.4124 9.01246 11.7914 17.7852C12.1274 19.9307 14.2782 20.5817 12.6507 23.5427C8.89692 22.6835 7.77692 19.635 7.92217 15.5697C8.15317 8.91971 13.7269 4.26121 19.3164 3.61721C26.3864 2.80171 33.0207 6.28946 33.9359 13.1372C34.9684 20.8652 30.7457 29.2372 23.1874 28.6335C21.1382 28.4707 20.2772 27.426 18.6724 26.4197Z" fill="#F38281"/>
</svg>

<svg width="42" height="42" fill="none" xmlns="http://www.w3.org/2000/svg"><path fill="#F9EFCF" d="M0 0h42v42H0z"/><path d="M18.672 26.42c-.885 4.77-1.963 9.345-5.162 11.733-.985-7.21 1.45-12.626 2.581-18.374-1.928-3.343.233-10.072 4.3-8.415 5.005 2.041-4.335 12.429 1.935 13.727 6.547 1.355 9.221-11.695 5.161-15.94-5.866-6.127-17.075-.139-15.696 8.634.336 2.146 2.487 2.797.86 5.758-3.754-.86-4.874-3.908-4.729-7.973.231-6.65 5.805-11.309 11.394-11.953 7.07-.815 13.705 2.672 14.62 9.52 1.032 7.728-3.19 16.1-10.749 15.497-2.049-.163-2.91-1.208-4.515-2.214Z" fill="#F38281"/></svg>
